icons/circle/48/distributor-logo-maui.svg

<svg xmlns="http://www.w3.org/2000/svg" viewBox="0 0 48 48">
 <defs>
  <linearGradient id="linearGradient3764" x1="1" x2="47" gradientUnits="userSpaceOnUse" gradientTransform="matrix(0,-1,1,0,-1.5e-6,47.999998)">
   <stop style="stop-color:#c6e8f6;stop-opacity:1"/>
   <stop offset="1" style="stop-color:#d7eff9;stop-opacity:1"/>
  </linearGradient>
 </defs>
 <g>
  <path d="m 36.31 5 c 5.859 4.062 9.688 10.831 9.688 18.5 c 0 12.426 -10.07 22.5 -22.5 22.5 c -7.669 0 -14.438 -3.828 -18.5 -9.688 c 1.037 1.822 2.306 3.499 3.781 4.969 c 4.085 3.712 9.514 5.969 15.469 5.969 c 12.703 0 23 -10.298 23 -23 c 0 -5.954 -2.256 -11.384 -5.969 -15.469 c -1.469 -1.475 -3.147 -2.744 -4.969 -3.781 z m 4.969 3.781 c 3.854 4.113 6.219 9.637 6.219 15.719 c 0 12.703 -10.297 23 -23 23 c -6.081 0 -11.606 -2.364 -15.719 -6.219 c 4.16 4.144 9.883 6.719 16.219 6.719 c 12.703 0 23 -10.298 23 -23 c 0 -6.335 -2.575 -12.06 -6.719 -16.219 z" style="opacity:0.05"/>
  <path d="m 41.28 8.781 c 3.712 4.085 5.969 9.514 5.969 15.469 c 0 12.703 -10.297 23 -23 23 c -5.954 0 -11.384 -2.256 -15.469 -5.969 c 4.113 3.854 9.637 6.219 15.719 6.219 c 12.703 0 23 -10.298 23 -23 c 0 -6.081 -2.364 -11.606 -6.219 -15.719 z" style="opacity:0.1"/>
  <path d="m 31.25 2.375 c 8.615 3.154 14.75 11.417 14.75 21.13 c 0 12.426 -10.07 22.5 -22.5 22.5 c -9.708 0 -17.971 -6.135 -21.12 -14.75 a 23 23 0 0 0 44.875 -7 a 23 23 0 0 0 -16 -21.875 z" style="opacity:0.2"/>
 </g>
 <g>
  <path d="m 24 1 c 12.703 0 23 10.297 23 23 c 0 12.703 -10.297 23 -23 23 -12.703 0 -23 -10.297 -23 -23 0 -12.703 10.297 -23 23 -23 z" style="fill:url(#linearGradient3764);fill-opacity:1"/>
 </g>
 <g>
  <path d="m 40.03 7.531 c 3.712 4.084 5.969 9.514 5.969 15.469 0 12.703 -10.297 23 -23 23 c -5.954 0 -11.384 -2.256 -15.469 -5.969 4.178 4.291 10.01 6.969 16.469 6.969 c 12.703 0 23 -10.298 23 -23 0 -6.462 -2.677 -12.291 -6.969 -16.469 z" style="opacity:0.1"/>
 </g>
 <path d="m 25 10 c -5.08 0.002 -9.813 2.582 -12.574 6.846 1.066 -0.389 2.692 -0.846 3.574 -0.846 2.619 0 1.671 4 0.5 7.4 2.5 -4.4 6.5 -7.4 8.5 -7.4 3 0 2.999 2 1.699 7.301 1.867 -3.3 5.858 -7.301 8.301 -7.301 6 0 -1.016 14.456 0.5 15 0.854 0.306 2.342 -1.773 4.104 -2.635 0.259 -1.103 0.396 -2.232 0.396 -3.365 0.004 -8.284 -6.716 -15 -15 -15 z m -12.859 7.313 c -1.395 2.322 -2.137 4.979 -2.141 7.688 -0.002 1.373 0.19 2.739 0.563 4.061 1.098 -4.391 2.639 -9.308 1.578 -11.748 z m 10.04 3.1 c -1.687 -0.006 -5.607 6.03 -8.828 14.03 2.846 3.512 7.124 5.558 11.645 5.557 5.698 -0.002 10.9 -3.242 13.426 -8.35 -1.67 1.801 -3.615 3.35 -5.426 3.35 -6 0 1 -14 -0.5 -14.5 -1.667 -0.556 -7.191 7.5 -8 13.5 -0.5 0.616 -1.16 1 -2.5 1 -1.34 0 -2 -0.633 -2.5 -1.25 1.143 -4.75 3.816 -12.738 3 -13.25 -0.094 -0.059 -0.2 -0.087 -0.316 -0.088 z" style="fill:#000;opacity:0.1;fill-opacity:1;stroke:none"/>
 <path d="m 24 9 c -5.08 0.002 -9.813 2.582 -12.574 6.846 1.066 -0.389 2.692 -0.846 3.574 -0.846 2.619 0 1.671 4 0.5 7.4 2.5 -4.4 6.5 -7.4 8.5 -7.4 3 0 2.999 2 1.699 7.301 1.867 -3.3 5.858 -7.301 8.301 -7.301 6 0 -1.016 14.456 0.5 15 0.854 0.306 2.342 -1.773 4.104 -2.635 0.259 -1.103 0.396 -2.232 0.396 -3.365 0.004 -8.284 -6.716 -15 -15 -15 z m -12.859 7.313 c -1.395 2.322 -2.137 4.979 -2.141 7.688 -0.002 1.373 0.19 2.739 0.563 4.061 1.098 -4.391 2.639 -9.308 1.578 -11.748 z m 10.04 3.1 c -1.687 -0.006 -5.607 6.03 -8.828 14.03 2.846 3.512 7.124 5.558 11.645 5.557 5.698 -0.002 10.9 -3.242 13.426 -8.35 -1.67 1.801 -3.615 3.35 -5.426 3.35 -6 0 1 -14 -0.5 -14.5 -1.667 -0.556 -7.191 7.5 -8 13.5 -0.5 0.616 -1.16 1 -2.5 1 -1.34 0 -2 -0.633 -2.5 -1.25 1.143 -4.75 3.816 -12.738 3 -13.25 -0.094 -0.059 -0.2 -0.087 -0.316 -0.088 z" style="fill:#10a3e0;opacity:1;fill-opacity:1;stroke:none"/>
</svg>

<svg xmlns="http://www.w3.org/2000/svg" viewBox="0 0 48 48">
  <defs>
    <linearGradient id="a" x1="1" x2="47" gradientUnits="userSpaceOnUse" gradientTransform="rotate(-90 24 24)">
      <stop stop-color="#c6e8f6"/>
      <stop offset="1" stop-color="#d7eff9"/>
    </linearGradient>
  </defs>
  <path d="M36.31 5c5.859 4.062 9.688 10.831 9.688 18.5 0 12.426-10.07 22.5-22.5 22.5-7.669 0-14.438-3.828-18.5-9.688a23.24 23.24 0 0 0 3.781 4.969 22.923 22.923 0 0 0 15.469 5.969c12.703 0 23-10.298 23-23a22.92 22.92 0 0 0-5.969-15.469A23.216 23.216 0 0 0 36.31 5zm4.969 3.781A22.911 22.911 0 0 1 47.498 24.5c0 12.703-10.297 23-23 23a22.909 22.909 0 0 1-15.719-6.219C12.939 45.425 18.662 48 24.998 48c12.703 0 23-10.298 23-23 0-6.335-2.575-12.06-6.719-16.219z" opacity=".05"/>
  <path d="M41.28 8.781a22.923 22.923 0 0 1 5.969 15.469c0 12.703-10.297 23-23 23A22.92 22.92 0 0 1 8.78 41.281 22.911 22.911 0 0 0 24.499 47.5c12.703 0 23-10.298 23-23A22.909 22.909 0 0 0 41.28 8.781z" opacity=".1"/>
  <path d="M31.25 2.375C39.865 5.529 46 13.792 46 23.505c0 12.426-10.07 22.5-22.5 22.5-9.708 0-17.971-6.135-21.12-14.75a23 23 0 0 0 44.875-7 23 23 0 0 0-16-21.875z" opacity=".2"/>
  <path d="M24 1c12.703 0 23 10.297 23 23S36.703 47 24 47 1 36.703 1 24 11.297 1 24 1z" fill="url(#a)"/>
  <path d="M40.03 7.531A22.922 22.922 0 0 1 45.999 23c0 12.703-10.297 23-23 23A22.92 22.92 0 0 1 7.53 40.031C11.708 44.322 17.54 47 23.999 47c12.703 0 23-10.298 23-23 0-6.462-2.677-12.291-6.969-16.469z" opacity=".1"/>
  <path d="M25 10a14.991 14.991 0 0 0-12.574 6.846C13.492 16.457 15.118 16 16 16c2.619 0 1.671 4 .5 7.4C19 19 23 16 25 16c3 0 2.999 2 1.699 7.301C28.566 20.001 32.557 16 35 16c6 0-1.016 14.456.5 15 .854.306 2.342-1.773 4.104-2.635.259-1.103.396-2.232.396-3.365.004-8.284-6.716-15-15-15zm-12.859 7.313A14.974 14.974 0 0 0 10 25.001c-.002 1.373.19 2.739.563 4.061 1.098-4.391 2.639-9.308 1.578-11.748zm10.04 3.1c-1.687-.006-5.607 6.03-8.828 14.03A14.989 14.989 0 0 0 24.998 40a14.99 14.99 0 0 0 13.426-8.35c-1.67 1.801-3.615 3.35-5.426 3.35-6 0 1-14-.5-14.5-1.667-.556-7.191 7.5-8 13.5-.5.616-1.16 1-2.5 1s-2-.633-2.5-1.25c1.143-4.75 3.816-12.738 3-13.25a.592.592 0 0 0-.316-.088z" opacity=".1"/>
  <path d="M24 9a14.991 14.991 0 0 0-12.574 6.846C12.492 15.457 14.118 15 15 15c2.619 0 1.671 4 .5 7.4C18 18 22 15 24 15c3 0 2.999 2 1.699 7.301C27.566 19.001 31.557 15 34 15c6 0-1.016 14.456.5 15 .854.306 2.342-1.773 4.104-2.635.259-1.103.396-2.232.396-3.365.004-8.284-6.716-15-15-15zm-12.859 7.313A14.974 14.974 0 0 0 9 24.001c-.002 1.373.19 2.739.563 4.061 1.098-4.391 2.639-9.308 1.578-11.748zm10.04 3.1c-1.687-.006-5.607 6.03-8.828 14.03A14.989 14.989 0 0 0 23.998 39a14.99 14.99 0 0 0 13.426-8.35c-1.67 1.801-3.615 3.35-5.426 3.35-6 0 1-14-.5-14.5-1.667-.556-7.191 7.5-8 13.5-.5.616-1.16 1-2.5 1s-2-.633-2.5-1.25c1.143-4.75 3.816-12.738 3-13.25a.592.592 0 0 0-.316-.088z" fill="#10a3e0"/>
</svg>
